img/logo.svg

<?xml version="1.0" encoding="UTF-8" standalone="no"?>
<svg width="65px" height="65px" viewBox="0 0 65 65" version="1.1" xmlns="http://www.w3.org/2000/svg" xmlns:xlink="http://www.w3.org/1999/xlink" xmlns:sketch="http://www.bohemiancoding.com/sketch/ns">
    <title>logo</title>
    <description>Created with Sketch (http://www.bohemiancoding.com/sketch)</description>
    <defs></defs>
    <g id="Page-1" stroke="none" stroke-width="1" fill="none" fill-rule="evenodd" sketch:type="MSPage">
        <path d="M36.222241,23.7778458 C37.259082,24.815059 37.259424,26.496555 36.222241,27.5339392 L30.53432,33.2223679 C29.497308,34.2592392 27.815519,34.2592392 26.7783361,33.222197 C25.7406401,32.1851547 25.7406401,30.5026328 26.7778231,29.4659326 L32.4655732,23.7778458 C33.5027561,22.7406326 35.184887,22.7408036 36.222241,23.7778458 L36.222241,23.7778458 Z M11,39.6710443 L13.2038535,49.3284398 L21.5271175,53 C21.5271175,53 39.1753251,34.9338081 43.4550573,30.552552 C48.2136683,25.6818839 51.5704016,23.853301 54.5353106,22.8786822 C74.9477753,16.1658454 62.4602725,-9.33339202 43.0178889,3.61257371 C33.7052687,9.81448768 18.0316658,30.4294712 11,39.6710443 L11,39.6710443 Z M47.9303154,17.3065973 L22.5419711,43 L20,35.1236766 L42.7678763,12.0818658 C44.1939869,10.6392958 46.505505,10.6394603 47.931128,12.0818658 C49.3564261,13.5249292 49.3564261,15.8636984 47.9303154,17.3065973 L47.9303154,17.3065973 Z M5.3563118,59.4442252 L3.40976055,52.3274242 L8.68331811,47.2136963 L7.9161339,44 L0,51.6765217 L3.70885121,65 L16,53.0815223 L13.1477584,51.8889199 L5.3563118,59.4442252 L5.3563118,59.4442252 Z" id="cut-8-icon" fill="#FFFFFF" sketch:type="MSShapeGroup"></path>
    </g>
</svg>

<svg width="65" height="65" xmlns="http://www.w3.org/2000/svg" xmlns:sketch="http://www.bohemiancoding.com/sketch/ns"><title>logo</title><path d="M36.222 23.778c1.037 1.037 1.037 2.719 0 3.756l-5.688 5.688c-1.037 1.037-2.719 1.037-3.756 0-1.038-1.037-1.038-2.72-.001-3.756l5.688-5.688c1.037-1.037 2.719-1.037 3.757 0zm-25.222 15.893l2.204 9.657 8.323 3.672s17.648-18.066 21.928-22.447c4.759-4.871 8.115-6.699 11.08-7.674 20.412-6.713 7.925-32.212-11.517-19.266-9.313 6.202-24.986 26.817-32.018 36.058zm36.93-22.364l-25.388 25.693-2.542-7.876 22.768-23.042c1.426-1.443 3.738-1.442 5.163 0 1.425 1.443 1.425 3.782-.001 5.225zm-42.574 42.138l-1.947-7.117 5.274-5.114-.767-3.214-7.916 7.677 3.709 13.323 12.291-11.918-2.852-1.193-7.791 7.555z" fill="#fff" sketch:type="MSShapeGroup"/></svg>
